!!!OTL@@DE: Krambambuli
!!!COM: Volksweise des 18 Jahrh.
!!!OMD: Fr&ouml;hlich
!!!ONB: Ged. von Crescentius Koromandel, d. i. Hofrath Wittekind in Danzig
!!!LDT: 1745
!!!OCL: Erk, Ludwig
!!!GCO: Deutscher Liederschatz, Band 1
**kern	**kern	**kern
*staff3	*staff2	*staff1
*Ipiano	*Ipiano	*Ivox
*>[A,A,B,B]	*>[A,A,B,B]	*>[A,A,B,B]
*>norep[A,B]	*>norep[A,B]	*>norep[A,B]
*>A	*>A	*>A
*clefF4	*clefG2	*clefG2
*k[]	*k[]	*k[]
*C:	*C:	*C:
*M2/4	*M2/4	*M2/4
*MM108	*MM108	*MM108
8G\	8g/	8g/
=1	=1	=1
*^	*	*
4G/	2C\	4e/ 4cc/	4cc\
(8E/L	.	(8g/ 8b/L	8b/L
8F/J	.	8f/) 8a/J	8a/J
=2	=2	=2	=2
4G/)	4C\	4.e/ 4.g/	4.g/
4c/	4C\	.	.
.	.	8e/ 8g/	8g/
=3	=3	=3	=3
4c/	4.C\	(8f/ 8a/L	8a/L
.	.	8e/) 8g/	8g/J
8c/L	.	8f/ 8a/	8a/L
8c/J	8C\	8d/ 8b/J	8b/J
=4	=4	=4	=4
*	*	*^	*
(8G/L	4.C\	(8cc/L	4e\	8cc/L
8c/)	.	8g/J)	.	8g/J
*	*	*v	*v	*
8c/J	.	8e/ 8g/L	8g/
*v	*v	*	*
8C/	8e/ 8g/J	8g/
=5	=5	=5
(8CC/L	(8f/ 8a/L	8a/L
8C/)	8e/) 8g/	8g/J
8C/	8d/ 8f/	8f/L
8C/J	8c/ 8e/J	8e/J
=6	=6	=6
(8CC/L	(8f/ 8a/L	8a/L
8C/)	8e/) 8g/	8g/J
8C/	8d/ 8f/	8f/L
8E/J	8c/ 8e/J	8e'/J
=7	=7	=7
4G\	4B/ 4d/	4d/
8.GG/ 8.D/L	8.B/ 8.g/L	4g/
16GG/ 16D/Jk	16B/ 16g/Jk	.
=8	=8	=8
4GG/ 4D/	4B/ 4g/	4g/
8r	8r	8r
=:|!|:	=:|!|:	=:|!|:
*>B	*>B	*>B
8G\	8B/ 8d/ 8g/	8g/
=9	=9	=9
*^	*	*
(8G/L	4.C\	(8c/ 8e/L	8e/
8c/)	.	8e/) 8g/	8g/
8c/	.	8e/ 8g/	8g/
8c/J	8C\	8e/ 8g/J	8g/
=10	=10	=10	=10
4c/	(8F\L	(8f/ 8a/L	8a/
.	8C\)	8e/) 8g/	8g/
8c/L	8C\	8e/ 8g/	8g/
8c/J	8C\J	8e/ 8g/J	8g/
=11	=11	=11	=11
(8G/L	4.C\	(8c/ 8e/L	8e/
8c/)	.	8e/) 8g/	8g/
8c/	.	8e/ 8g/	8g/
8c/J	8C\	8e/ 8g/J	8g/
=12	=12	=12	=12
4c/	(8F\L	(8f/ 8a/L	8a/
.	8C\)	8e/) 8g/	8g/
8c/	8C\J	8e/ 8g/	8g/
*v	*v	*	*
8C/	8c/ 8e/ 8g/J	8g/
=13	=13	=13
4E\ 4c\	4g/ 4cc/	4cc\
4G\ 4B\	4g/ 4dd/	4dd\
=14	=14	=14
8.C\ 8.c\L	8.g\ 8.ee\L	8.ee^\
16c\ 16e\k	16g\ 16cc\k	16cc\
8c\ 8e\	8g\ 8cc\	8cc\
8A\ 8e\J	8a\ 8cc\J	8cc\
=15	=15	=15
4F\ 4d\	4a\ 4dd\	4dd'\
4G\ 4d\	4f/ 4g/ 4b/	4b'\
=16	=16	=16
4C\ 4c\	4e/ 4g/ 4cc/	4cc\
8r	8r	8r
==:|!	==:|!	==:|!
*-	*-	*-
!!!ENC: Craig Stuart Sapp
!!!END: 2004/06/28/
!!!EFL: 192/651
